X:573
T:Freedom Come All Ye
Z:Jack Campin, http://www.campin.me.uk/
F:Jack Campin's Nine-Note Tunebook
% last edit 03-02-2013
M:3/4
L:1/8
Q:1/4=100
N:this is more often sung in A
K:D
A>F|D2 D>E      FA|B2     A2\
Bd |A2 G>A      FD|FG/F/ HE2
A>F|D2 D>E      FA|B2     A2\
Bd |A2 A/F/D/E/ FE|D4
Bc |d2 A>A      Bd|A2     F2\
B>d|A2 GA       FD|FG/F/ HE2
A>F|D2 D>E      FA|B2     A2\
Bd |A2 A/F/D/E/ FE|D4     |]

